!!!!SEGMENT: pl-wtm--r-996-1--001-007_krogulski-jozef-wladyslaw--nieszpory-salve-regina.krn
!!!cenid: 18xx:2098
!!!COM: Krogulski, Józef Władysław
!!!COM-rismid: pe30001797
!!!CDT: 1815/10/04-1842/01/09
!!!CNT: Polish
!!!OPR: Nieszpory
!!!OTL: Salve Regina
!!!OMV: 007
!!!PDT: 1836
!!!AGN: Sacred; Vespers
!!!SMS-siglum: PL-Wtm
!!!SMS-shelfmark: R 996/1
!!!SMS-shelfwork: 001-007 M
!!!SMS-variant:
!!!SMS-altvar:
!!!NIFC-rismid: 1001086252
!!!URL-scan: http://repozytorium.nifc.pl/skany/pl-wtm-nut--r996
!!!ONB-nifc: UWAGA: części Nieszporów: 1. Dixit Dominus, 2. Confitebor tibi, 3. Beatus vir, 4. Laudate pueri, 5. Laudate Dominum, 6. Magnificat, 7. Salve Regina. Folder pl-wtm-r996-1
!!!OMD: Allegro moderato.
**kern	**kern	**dynam	**kern	**text	**dynam	**kern	**text	**dynam	**kern	**text	**dynam	**kern	**text	**dynam
*part5	*part5	*part5	*part4	*part4	*part4	*part3	*part3	*part3	*part2	*part2	*part2	*part1	*part1	*part1
*staff6	*staff5	*	*staff4	*staff4	*	*staff3	*staff3	*	*staff2	*staff2	*	*staff1	*staff1	*
*	*I"Organo.	*	*I"Basſo.	*	*	*I"Tenori	*	*	*I"Soprano 2 vel Alto.	*	*	*I"Soprano 1.	*	*
*>[A,B,B,C]	*>[A,B,B,C]	*>[A,B,B,C]	*>[A,B,B,C]	*>[A,B,B,C]	*>[A,B,B,C]	*>[A,B,B,C]	*>[A,B,B,C]	*>[A,B,B,C]	*>[A,B,B,C]	*>[A,B,B,C]	*>[A,B,B,C]	*>[A,B,B,C]	*>[A,B,B,C]	*>[A,B,B,C]
*>A	*>A	*>A	*>A	*>A	*>A	*>A	*>A	*>A	*>A	*>A	*>A	*>A	*>A	*>A
*clefF4	*clefG2	*	*clefF4	*	*	*clefG2	*	*	*clefG2	*	*	*clefG2	*	*
*	*	*	*	*	*	*ITrd7c12	*	*	*	*	*	*	*	*
*k[f#c#g#]	*k[f#c#g#]	*	*k[f#c#g#]	*	*	*k[f#c#g#]	*	*	*k[f#c#g#]	*	*	*k[f#c#g#]	*	*
*A:	*A:	*	*A:	*	*	*A:	*	*	*A:	*	*	*A:	*	*
*M4/4	*M4/4	*	*M4/4	*	*	*M4/4	*	*	*M4/4	*	*	*M4/4	*	*
*met(c)	*met(c)	*	*met(c)	*	*	*met(c)	*	*	*met(c)	*	*	*met(c)	*	*
=1	=1	=1	=1	=1	=1	=1	=1	=1	=1	=1	=1	=1	=1	=1
*	*	*	*	*ij	*	*	*	*	*	*ij	*	*	*	*
!	!	!LO:DY:rj	!	!	!LO:DY:rj:b	!	!	!LO:DY:rj:b	!	!	!LO:DY:rj:b	!	!	!LO:DY:rj:b
2.A\	2ee 2cc#\	f	2A\	Sal-	f	2e 2c#\	Sal-	f	2cc#\	Sal-	f	2ee\	Sal-	f
.	4cc# 4a\	.	4A\	-ve	.	4c# 4A\	-ve	.	4a\	-ve	.	4cc#\	-ve	.
4D\	8eeL 8cc#\	.	4D\	Re-	.	8eL 8c#\	Re-	.	8cc#\L	Re-	.	8ee\L	Re-	.
.	8ddJ 8b\	.	.	.	.	8dJ 8B\	.	.	8b\J	.	.	8dd\J	.	.
=2	=2	=2	=2	=2	=2	=2	=2	=2	=2	=2	=2	=2	=2	=2
2E\	4.cc# 4.a\	.	2E\	-gi-	.	(4.c# 4.A\	-gi-	.	(4.a\	-gi-	.	(4.cc#\	-gi-	.
.	8dd 8b\	.	.	.	.	8d 8B\)	.	.	8b\)	.	.	8dd\)	.	.
4E\	4b 4g#\	.	4E\	-na	.	4B 4G#\	-na	.	4g#/	-na	.	4b\	-na	.
4r	4r	.	4r	.	.	4r	.	.	4r	.	.	4r	.	.
=3	=3	=3	=3	=3	=3	=3	=3	=3	=3	=3	=3	=3	=3	=3
2A\	8cc#L 8a\	.	2A\	Ma-	.	8c#L 8A\	Ma-	.	8a\L	Ma-	.	8cc#\L	Ma-	.
.	8dd 8b\	.	.	.	.	8d 8B\	.	.	8b\	.	.	8dd\	.	.
.	8dd#X 8b#X\	.	.	.	.	8d#X 8B#X\	.	.	8b#X\	.	.	8dd#X\	.	.
.	8eeJ 8cc#\	.	.	.	.	8eJ 8c#\	.	.	8cc#\J	.	.	8ee\J	.	.
2D\	8ee#XL 8cc#\	.	8D\	-ter	.	8e#X 8c#\	-ter	.	8cc#\	-ter	.	8ee#X\	-ter	.
.	8ff# 8dd#\	.	8D\	mi-	.	8f# 8d#\	mi-	.	8dd\	mi-	.	8ff#\	mi-	.
.	8een 8cc#\	.	8D\	-se-	.	8en 8c#\	-se-	.	8cc#\	-se-	.	8een\	-se-	.
.	8ddnJ 8bn\	.	8D\	-ri	.	8dn 8Bn\	-ri	.	8bn\	-ri	.	8ddn\	-ri	.
=4	=4	=4	=4	=4	=4	=4	=4	=4	=4	=4	=4	=4	=4	=4
2E\	4.cc# 4.a\	.	4.E\	cor-	.	4.c# 4.A\	cor-	.	4.a\	cor-	.	4.cc#\	cor-	.
.	8dd 8b\	.	8E\	-di-	.	8d 8B\	-di-	.	8b\	-di-	.	8dd\	-di-	.
4EE/	4b 4g#\	.	4E\	-ae	.	4B 4G#\	-ae	.	4g#/	-ae	.	4b\	-ae	.
4r	4r	.	4r	.	.	4r	.	.	4r	.	.	4r	.	.
=5	=5	=5	=5	=5	=5	=5	=5	=5	=5	=5	=5	=5	=5	=5
2.A\	2ee 2cc#\	.	2A\	vi-	.	2e 2c#\	vi-	.	2cc#\	vi-	.	2ee\	vi-	.
.	4cc# 4a\	.	4A\	-ta	.	4c# 4A\	-ta	.	4a\	-ta	.	4cc#\	-ta	.
4D\	8eeL 8cc#\	.	4D\	dul-	.	8eL 8c#\	dul-	.	8cc#\L	dul-	.	8ee\L	dul-	.
.	8ddJ 8b\	.	.	.	.	8dJ 8B\	.	.	8b\J	.	.	8dd\J	.	.
=6	=6	=6	=6	=6	=6	=6	=6	=6	=6	=6	=6	=6	=6	=6
2E\	(4.cc# 4.a\	.	2E\	-ce-	.	(4.c# 4.A\	-ce-	.	(4.a\	-ce-	.	(4.cc#\	-ce-	.
.	8dd 8b\)	.	.	.	.	8d 8B\)	.	.	8b\)	.	.	8dd\)	.	.
4E\	4b 4g#\	.	4E\	-do	.	4B 4G#\	-do	.	4g#/	-do	.	4b\	-do	.
4r	4r	.	4r	.	.	4r	.	.	4r	.	.	4r	.	.
=7	=7	=7	=7	=7	=7	=7	=7	=7	=7	=7	=7	=7	=7	=7
2A\	8cc#L 8a\	.	4A\	et	.	8c#L 8A\	et	.	8a\L	et	.	8cc#\L	et	.
.	8dd 8b\	.	.	.	.	8dJ 8B\	.	.	8b\J	.	.	8dd\J	.	.
.	8dd#X 8b#X\	.	4A\	spes	.	8d#XL 8B#X\	spes	.	8b#X\L	spes	.	8dd#X\L	spes	.
.	8eeJ 8cc#\	.	.	.	.	8eJ 8c#\	.	.	8cc#\J	.	.	8ee\J	.	.
!	!	!	!	!	!	!LO:SIC:v:n=1:s=8BnL	!	!	!	!	!	!	!	!
2E\	8bnL 8g#\	.	4E\	nos-	.	8B#L 8G#\	nos-	.	8g#\L	nos-	.	8b\L	nos-	.
.	8cc# 8a\	.	.	.	.	8c#J 8A\	.	.	8a\J	.	.	8cc#\J	.	.
.	8ddn 8b\	.	4E\	-tra	.	8dnL 8B\	-tra	.	8bn\L	-tra	.	8ddn\L	-tra	.
.	8eeJ 8cc#\	.	.	.	.	8eJ 8c#\	.	.	8cc#\J	.	.	8ee\J	.	.
=8	=8	=8	=8	=8	=8	=8	=8	=8	=8	=8	=8	=8	=8	=8
2E/	4.ee 4.cc#\	.	2E\	sal-	.	(4.e 4.c#\	sal-	.	(4.cc#\	sal-	.	(4.ee\	sal-	.
.	8dd 8b\	.	.	.	.	8d 8B\)	.	.	8b\)	.	.	8dd\)	.	.
4A/	4cc# 4a\	.	4A\	-ve	.	4c# 4A\	-ve	.	4a/	-ve	.	4cc#\	-ve	.
4r	4r	.	4r	.	.	4r	.	.	4r	.	.	4r	.	.
=9	=9	=9	=9	=9	=9	=9	=9	=9	=9	=9	=9	=9	=9	=9
!	!	!LO:DY:rj	!	!	!LO:DY:rj:b	!	!	!LO:DY:rj:b	!	!	!LO:DY:rj:b	!	!	!LO:DY:rj:b
[1F#	[1cc# [1a	p	2F#\	Ad	p	2c# 2A\	Ad	p	2a/	Ad	p	2cc#\	Ad	p
.	.	.	4F#\	te	.	4c# 4A\	te	.	4a/	te	.	4cc#\	te	.
.	.	.	4F#\	cla-	.	4c# 4A\	cla-	.	4a/	cla-	.	4cc#\	cla-	.
=10	=10	=10	=10	=10	=10	=10	=10	=10	=10	=10	=10	=10	=10	=10
4.F#\]	4.cc#] 4.a\]	.	(4.F#\	-ma-	.	(4.c# 4.A\	-ma-	.	(4.a/	-ma-	.	(4.cc#\	-ma-	.
8E#X\	8dd 8b\	.	8E#X\)	.	.	8d 8B\)	.	.	8b/)	.	.	8dd\)	.	.
2E#\	2dd 2b\	.	2E#\	-mus	.	2d 2B\	-mus	.	2b/	-mus	.	2dd\	-mus	.
=11	=11	=11	=11	=11	=11	=11	=11	=11	=11	=11	=11	=11	=11	=11
2E#X\	4dd 4b\	.	4E#X\	e-	.	4d 4B\	e-	.	4b/	e-	.	4dd\	e-	.
.	8cc#L 8a\	.	8E#\	-xu-	.	8c# 8A\	-xu-	.	8a/	-xu-	.	8cc#\	-xu-	.
.	8bJ 8g#\	.	8E#\	-les	.	8B 8G#\	-les	.	8g#/	-les	.	8b\	-les	.
4F#\	4a 4f#\	.	4F#\	fi-	.	4A 4F#/	fi-	.	4f#/	fi-	.	4a\	fi-	.
4BB/	8cc#L 8a\	.	8BB/	-li-	.	8c# 8A/	-li-	.	8a/	-li-	.	8cc#\	-li-	.
.	8bJ 8g#\	.	8BB/	-i	.	8B 8G#/	-i	.	8g#/	-i	.	8b\	-i	.
!!LO:LB:g=original
=12	=12	=12	=12	=12	=12	=12	=12	=12	=12	=12	=12	=12	=12	=12
*	*	*	*	*	*	*^	*	*	*	*	*	*	*	*
1C#	2a 2f#/	.	2C#/	E-	.	2A 2F#/	2.ryy	E-	.	2f#/	E-	.	2a/	E-	.
.	4g# 4e#X/	.	4C#/	-vae	.	4G# 4E#X\	.	-vae	.	4e#X/	-vae	.	4g#/	-vae	.
.	4cc#\	.	4C#/	ad	.	4c#/	4c#\	ad	.	4cc#\	ad	.	4cc#\	ad	.
*	*	*	*	*	*	*v	*v	*	*	*	*	*	*	*	*
=13	=13	=13	=13	=13	=13	=13	=13	=13	=13	=13	=13	=13	=13	=13
1F#	1cc# 1a#X	.	2F#\	te	.	2c# 2A#X\	te	.	2a#X/	te	.	2cc#\	te	.
.	.	.	4F#\	sus-	.	4c# 4A#\	sus-	.	4a#/	sus-	.	4cc#\	sus-	.
.	.	.	4F#\	-pi-	.	4c# 4A#\	-pi-	.	4a#/	-pi-	.	4cc#\	-pi-	.
=14	=14	=14	=14	=14	=14	=14	=14	=14	=14	=14	=14	=14	=14	=14
2.BB/	2.dd 2.b\	.	2BB/	-ra-	.	2d 2B\	-ra-	.	2b/	-ra-	.	2dd\	-ra-	.
.	.	.	4BB/	-mus	.	4d 4B\	-mus	.	4b/	-mus	.	4dd\	-mus	.
8C#/L	4cc# 4an\	.	8C#/L	ge-	.	4c# 4An\	ge-	.	4an/	ge-	.	4cc#\	ge-	.
8D/J	.	.	8D/J	.	.	.	.	.	.	.	.	.	.	.
=15	=15	=15	=15	=15	=15	=15	=15	=15	=15	=15	=15	=15	=15	=15
[1E	2b 2g#/	.	2E\	-men-	.	2B 2G#/	-men-	.	2g#/	-men-	.	2b\	-men-	.
.	4cc# 4a\	.	4E\	-tes	.	4c# 4A\	-tes	.	4a/	-tes	.	4cc#\	-tes	.
.	4ff# 4dd\	.	4E\	et	.	4f# 4d\	et	.	4dd\	et	.	4ff#\	et	.
=16	=16	=16	=16	=16	=16	=16	=16	=16	=16	=16	=16	=16	=16	=16
2E\]	(4.ee 4.cc#\	.	2E\	flen-	.	(4.e 4.c#\	flen-	.	(4.cc#\	flen-	.	(4.ee\	flen-	.
.	8dd 8b\)	.	.	.	.	8d 8B\)	.	.	8b\)	.	.	8dd\)	.	.
2A\	4cc# 4a\	.	4A\	-tes	.	4c# 4A\	-tes	.	4a\	-tes	.	4cc#\	-tes	.
.	4cc# 4a\	.	4A\	in	.	4c# 4A\	in	.	4a\	in	.	4cc#\	in	.
=17	=17	=17	=17	=17	=17	=17	=17	=17	=17	=17	=17	=17	=17	=17
1G#	1ee 1cc#	.	2G#\	hac	.	2e 2c#\	hac	.	2cc#\	hac	.	2ee\	hac	.
.	.	.	4G#\	la-	.	4e 4c#\	la-	.	4cc#\	la-	.	4ee\	la-	.
.	.	.	4G#\	-cri	.	4e 4c#\	-cri-	.	4cc#\	-cri-	.	4ee\	-cri-	.
=18	=18	=18	=18	=18	=18	=18	=18	=18	=18	=18	=18	=18	=18	=18
[1GG#	2ee 2g#\	.	2.GG#/	ma-	.	(2e 2G#/	-ma-	.	(2g#/	-ma-	.	(2ee\	-ma-	.
.	4dd#X 4f#\	.	.	.	.	4d#X 4F#/)	.	.	4f#/)	.	.	4dd#X\)	.	.
.	4cc# 4e\	.	4GG#/	-rum	.	4c# 4E/	-rum	.	4e/	-rum	.	4cc#\	-rum	.
=19	=19	=19	=19	=19	=19	=19	=19	=19	=19	=19	=19	=19	=19	=19
1GG#]	4b#X 4d#X/	.	1GG#	val-	.	4B#X 4D#X/	val-	.	(4d#X/	val-	.	(4b#X\	val-	.
.	4cc# 4e/	.	.	.	.	4c# 4E/	.	.	4e/	.	.	4cc#\	.	.
.	8eeL 8g#/	.	.	.	.	8eL 8G#/	.	.	8g#/L	.	.	8ee\L	.	.
.	8dd#X 8f#/	.	.	.	.	8d#X 8F#/	.	.	8f#/	.	.	8dd#X\	.	.
.	8cc# 8e/	.	.	.	.	8c# 8E/	.	.	8e/	.	.	8cc#\	.	.
.	8b#J 8d#/	.	.	.	.	8B#J 8D#/	.	.	8d#/J)	.	.	8b#\J)	.	.
=20	=20	=20	=20	=20	=20	=20	=20	=20	=20	=20	=20	=20	=20	=20
*	*	*	*	*	*	*^	*	*	*	*	*	*	*	*
2C#/	2cc# 2e/	.	2C#/	-le	.	2c# 2E/	2.ryy	-le	.	2e/	-le	.	2cc#\	-le	.
4r	4r	.	4r	.	.	4r	.	.	.	4r	.	.	4r	.	.
4c#\	4cc#\	.	4c#\	in	.	4c#/	4c#\	in	.	4cc#\	in	.	4cc#\	in	.
*	*	*	*	*	*	*v	*v	*	*	*	*	*	*	*	*
=21	=21	=21	=21	=21	=21	=21	=21	=21	=21	=21	=21	=21	=21	=21
1c#	1ee 1cc#	.	2c#\	hac	.	2e 2c#\	hac	.	2cc#\	hac	.	2ee\	hac	.
.	.	.	4c#\	la-	.	4e 4c#\	la-	.	4cc#\	la-	.	4ee\	la-	.
.	.	.	4c#\	-cri-	.	4e 4c#\	-cri-	.	4cc#\	-cri-	.	4ee\	-cri-	.
=22	=22	=22	=22	=22	=22	=22	=22	=22	=22	=22	=22	=22	=22	=22
1F#	2.gg# 2.ee\	.	2.F#\	-ma-	.	2.g# 2.e\	-ma-	.	2.ee\	-ma-	.	2.gg#\	-ma-	.
.	4ff# 4dd#X\	.	4F#\	-rum	.	4f# 4d#X\	-rum	.	4dd#X\	-rum	.	4ff#\	-rum	.
=23	=23	=23	=23	=23	=23	=23	=23	=23	=23	=23	=23	=23	=23	=23
*	*^	*	*	*	*	*^	*	*	*	*	*	*	*	*
1G#	2ee/	2.cc#\	.	1G#	val-	.	2e/	2.c#\	val-	.	(2.cc#\	val-	.	(2ee\	val-	.
.	2dd#X/	.	.	.	.	.	2d#X/	.	.	.	.	.	.	2dd#X\)	.	.
.	.	4b#X\	.	.	.	.	.	4B#X\	.	.	4b#X\)	.	.	.	.	.
=24	=24	=24	=24	=24	=24	=24	=24	=24	=24	=24	=24	=24	=24	=24	=24	=24
2C#/	2cc#/	2cc#\	.	2C#/	-le	.	2c#/	2c#\	-le	.	2cc#\	-le	.	2cc#\	-le	.
2r	2r	2ryy	.	2r	.	.	2r	2ryy	.	.	2r	.	.	2r	.	.
*	*v	*v	*	*	*	*	*v	*v	*	*	*	*	*	*	*	*
=25	=25	=25	=25	=25	=25	=25	=25	=25	=25	=25	=25	=25	=25	=25
!	!	!LO:DY:rj	!	!	!LO:DY:rj:b	!	!	!LO:DY:rj:b	!	!	!LO:DY:rj:b	!	!	!LO:DY:rj:b
2.A\	2ee 2cc#\	f	2.A\	E-	f	(2e 2c#\	E-	f	(2cc#\	E-	f	(2ee\	E-	f
.	4cc# 4a\	.	.	.	.	4c# 4A\)	.	.	4a\)	.	.	4cc#\)	.	.
4D\	8eeL 8cc#\	.	4D\	-ja	.	8eL 8c#\	-ja	.	8cc#\L	-ja	.	8ee\L	-ja	.
.	8ddJ 8b\	.	.	.	.	8dJ 8B\	.	.	8b\J	.	.	8dd\J	.	.
=26	=26	=26	=26	=26	=26	=26	=26	=26	=26	=26	=26	=26	=26	=26
2E\	4.cc# 4.a\	.	2E\	er-	.	(4.c# 4.A\	er-	.	(4.a\	er-	.	(4.cc#\	er-	.
.	8dd 8b\	.	.	.	.	8d 8B\)	.	.	8b\)	.	.	8dd\)	.	.
4E\	4b 4g#\	.	4E\	-go	.	4B 4G#\	-go	.	4g#/	-go	.	4b\	-go	.
4r	4r	.	4r	.	.	4r	.	.	4r	.	.	4r	.	.
!!LO:PB:g=original
=27	=27	=27	=27	=27	=27	=27	=27	=27	=27	=27	=27	=27	=27	=27
2A\	(8cc#L 8a\	.	(2A\	a-	.	(8c#L 8A\	a-	.	(8a\L	a-	.	(8cc#\L	a-	.
.	8dd 8b\	.	.	.	.	8d 8B\	.	.	8b\	.	.	8dd\	.	.
.	8dd#X 8b#X\	.	.	.	.	8d#X 8B#X\	.	.	8b#X\	.	.	8dd#X\	.	.
.	8eeJ 8cc#\	.	.	.	.	8eJ 8c#\	.	.	8cc#\J	.	.	8ee\J	.	.
2D\	8ee#XL 8cc#\	.	8D\)	.	.	8e#X 8c#\)	.	.	8cc#\)	.	.	8ee#X\)	.	.
.	8ff# 8dd#\	.	8D\	-dvo-	.	8f# 8d#\	-dvo-	.	8dd\	-dvo-	.	8ff#\	-dvo-	.
.	8een 8cc#\	.	8D\	-ca-	.	8en 8c#\	-ca-	.	8cc#\	-ca-	.	8een\	-ca-	.
.	8ddnJ 8bn\)	.	8D\	-ta	.	8dn 8Bn\	-ta	.	8bn\	-ta	.	8ddn\	-ta	.
=28	=28	=28	=28	=28	=28	=28	=28	=28	=28	=28	=28	=28	=28	=28
!	!	!	!	!	!	!	!	!	!	!	!	!LO:TX:t=P:problem:skreślona nuta	!	!
[2E\	4.cc# 4.a\	.	2E\	no-	.	(4.c# 4.A\	no-	.	(4.a\	no-	.	(4.cc#\	no-	.
.	8dd 8b\	.	.	.	.	8d 8B\)	.	.	8b\)	.	.	8dd\)	.	.
4E\]	4b 4g#\	.	4E\	-stra	.	4B 4G#/	-stra	.	4g#/	-stra	.	4b\	-stra	.
4r	4r	.	4r	.	.	4r	.	.	4r	.	.	4r	.	.
=29	=29	=29	=29	=29	=29	=29	=29	=29	=29	=29	=29	=29	=29	=29
2.A\	2ee 2cc#\	.	2.A\	E-	.	(2e 2c#\	E-	.	(2cc#\	E-	.	(2ee\	E-	.
.	4cc# 4a\	.	.	.	.	4c# 4A\)	.	.	4a\)	.	.	4cc#\)	.	.
4D\	8eeL 8cc#\	.	4D\	-ja	.	8eL 8c#\	-ja	.	8cc#\L	-ja	.	8ee\L	-ja	.
.	8ddJ 8b\	.	.	.	.	8dJ 8B\	.	.	8b\J	.	.	8dd\J	.	.
=30	=30	=30	=30	=30	=30	=30	=30	=30	=30	=30	=30	=30	=30	=30
2E\	(4.cc# 4.a\	.	2E\	er-	.	(4.c# 4.A\	er-	.	(4.a/	er-	.	(4.cc#\	er-	.
.	8dd 8b\)	.	.	.	.	8d 8B\)	.	.	8b/)	.	.	8dd\)	.	.
4E\	4b 4g#/	.	4E\	-go	.	4B 4G#\	-go	.	4g#/	-go	.	4b\	-go	.
4r	4r	.	4r	.	.	4r	.	.	4r	.	.	4r	.	.
=31	=31	=31	=31	=31	=31	=31	=31	=31	=31	=31	=31	=31	=31	=31
2A\	8cc#L 8a\	.	(2A\	a-	.	(8c#L 8A\	a-	.	(8a/L	a-	.	(8cc#\L	a-	.
.	8dd 8b\	.	.	.	.	8d 8B\	.	.	8b/	.	.	8dd\	.	.
.	8dd#X 8b#X\	.	.	.	.	8d#X 8B#X\	.	.	8b#X/	.	.	8dd#X\	.	.
.	8eeJ 8cc#\	.	.	.	.	8eJ 8c#\	.	.	8cc#/J	.	.	8ee\J	.	.
!	!	!	!	!	!	!LO:SIC:v:n=1:s=8Bn	!	!	!	!	!	!	!	!
[2E\	8bnL 8g#\	.	8E\)	.	.	8B# 8G#\)	.	.	8g#/)	.	.	8b\)	.	.
.	8cc# 8a\	.	8E\	-dvo-	.	8c# 8A\	-dvo-	.	8a/	-dvo-	.	8cc#\	-dvo-	.
!	!LO:SIC:v:n=1:s=8ddn	!	!	!	!	!	!	!	!	!	!	!	!	!
.	8dd# 8b\	.	8E\	-ca-	.	8dn 8B\	-ca-	.	8bn/	-ca-	.	8ddn\	-ca-	.
.	8eeJ 8cc#\	.	8E\	-ta	.	8e 8c#\	-ta	.	8cc#/	-ta	.	8ee\	-ta	.
=32	=32	=32	=32	=32	=32	=32	=32	=32	=32	=32	=32	=32	=32	=32
2E\]	(4.ee 4.cc#\	.	2E\	no-	.	(4.e 4.c#\	no-	.	(4.cc#\	no-	.	(4.ee\	no-	.
.	8dd 8b\)	.	.	.	.	8d 8B\)	.	.	8b\)	.	.	8dd\)	.	.
4A\	4cc# 4a\	.	4A\	-stra	.	4c# 4A\	-stra	.	4a/	-stra	.	4cc#\	-stra	.
4r	4r	.	4r	.	.	4r	.	.	4r	.	.	4r	.	.
=33	=33	=33	=33	=33	=33	=33	=33	=33	=33	=33	=33	=33	=33	=33
*	*	*	*	*	*	*^	*	*	*	*	*	*	*	*
!	!	!LO:DY:rj	!	!	!LO:DY:rj:b	!	!	!	!LO:DY:rj:b	!	!	!LO:DY:rj:b	!	!	!LO:DY:rj:b
[1A	[1ccn [1a	p	2.A\	il-	p	4r	4ryy	.	p	2.a/	il-	p	2.ccn\	il-	p
.	.	.	.	.	.	(4fn/	(4fn\	il-	.	.	.	.	.	.	.
.	.	.	.	.	.	4e/)	4e\)	.	.	.	.	.	.	.	.
.	.	.	4A\	-los	.	4cn/	4cn\	-los	.	4a/	-los	.	4cc\	-los	.
=34	=34	=34	=34	=34	=34	=34	=34	=34	=34	=34	=34	=34	=34	=34	=34
1A_	1ccnX_ 1a_	.	2A\	tu-	.	2A/	2A\	tu-	.	2a/	tu-	.	2ccn\	tu-	.
.	.	.	4A\	-os	.	4A/	4A\	-os	.	4a/	-os	.	4cc\	-os	.
.	.	.	4A\	mi-	.	4A/	4A\	mi-	.	4a/	mi-	.	4cc\	mi-	.
=35	=35	=35	=35	=35	=35	=35	=35	=35	=35	=35	=35	=35	=35	=35	=35
1A_	1ccnX_ 1a_	.	4A\	-se-	.	4A/	4A\	-se-	.	4a/	-se-	.	4ccn\	-se-	.
.	.	.	4A\	-ri-	.	4fn/	4fn\	-ri-	.	4a/	-ri-	.	4cc\	-ri-	.
.	.	.	4A\	-cor-	.	4e/	4e\	-cor-	.	4a/	-cor-	.	4cc\	-cor-	.
.	.	.	4A\	-des	.	4cn/	4cn\	-des	.	4a/	-des	.	4cc\	-des	.
=36	=36	=36	=36	=36	=36	=36	=36	=36	=36	=36	=36	=36	=36	=36	=36
1A]	1ccnX_ 1a_	.	4.A\	o-	.	4.A/	4.A\	o-	.	4.a/	o-	.	4.ccn\	o-	.
.	.	.	8A\	-cu-	.	8A/	8A\	-cu-	.	8a/	-cu-	.	8cc\	-cu-	.
.	.	.	4A\	-los	.	4A/	4A\	-los	.	4a/	-los	.	4cc\	-los	.
.	.	.	4r	.	.	4r	4ryy	.	.	4r	.	.	4r	.	.
*	*	*	*	*	*	*v	*v	*	*	*	*	*	*	*	*
=37	=37	=37	=37	=37	=37	=37	=37	=37	=37	=37	=37	=37	=37	=37
[1Fn [1FFn	1ccnX] 1a]	.	2Fn\	ad	.	2cn 2A\	ad	.	2a/	ad	.	2ccn\	ad	.
.	.	.	4F\	nos	.	4c 4A\	nos	.	4a/	nos	.	4cc\	nos	.
.	.	.	4F\	con-	.	4c 4A\	con-	.	4a/	con-	.	4cc\	con-	.
=38	=38	=38	=38	=38	=38	=38	=38	=38	=38	=38	=38	=38	=38	=38
!	!	!LO:DY:rj:t=mf.	!	!	!	!	!	!	!	!	!	!	!	!
1FnX_ 1FFnX_	(4.ccn 4.a\	mf	2Fn\	-ver-	.	(4.c# 4.A\	-ver-	.	(4.a/	-ver-	.	(4.ccn\	-ver-	.
!	!	!	!	!	!LO:HP:t=cres&colon;	!	!	!LO:HP:t=cres&colon;	!	!	!LO:HP:t=cres&colon;	!	!	!
.	8dd 8b-X\)	.	.	.	<	8d 8B-X\)	.	<	8b-X/)	.	<	8dd\)	.	.
!	!	!	!	!	!	!	!	!	!	!	!	!	!	!LO:HP:t=cres&colon;
.	4dd 4b-\	.	4F\	-te	.	4d 4B-\	-te	.	4b-/	-te	.	4dd\	-te	<
.	4r	.	4r	.	.	4r	.	.	4r	.	.	4r	.	.
=39	=39	=39	=39	=39	=39	=39	=39	=39	=39	=39	=39	=39	=39	=39
1FnX_ 1FFnX_	1dd 1b-X	.	2Fn\	ad	.	2d 2B-X\	ad	.	2b-X\	ad	.	2dd\	ad	.
.	.	.	4F\	nos	.	4d 4B-\	nos	.	4b-\	nos	.	4dd\	nos	.
.	.	.	4F\	con-	.	4d 4B-\	con-	.	4b-\	con-	.	4dd\	con-	.
!!LO:LB:g=original
=40	=40	=40	=40	=40	=40	=40	=40	=40	=40	=40	=40	=40	=40	=40
1FnX_ 1FFnX_	(4.dd 4.bn\	.	2Fn\	-ver-	.	(4.d 4.Bn\	-ver-	.	(4.bn\	-ver-	.	(4.dd\	-ver-	.
.	8ee-X 8ccn\)	.	.	.	.	8e-X 8cn\)	.	.	8ccn\)	.	.	8ee-X\)	.	.
.	4ee- 4cc\	.	4F\	-te	.	4e- 4c\	-te	.	4cc\	-te	.	4ee-\	-te	.
.	4r	.	4r	.	.	4r	.	.	4r	.	.	4r	.	.
=41	=41	=41	=41	=41	=41	=41	=41	=41	=41	=41	=41	=41	=41	=41
!	!	!	!	!	!LO:DY:rj:b	!	!	!LO:DY:rj:b	!	!	!LO:DY:rj:b	!	!	!LO:DY:rj:b
1FnX] 1FFnX]	1dd#X 1b#X|	f	2Fn\	ad	f	2d#X 2B#X\	ad	f	2b#X\	ad	f	2dd#X\	ad	f
.	.	.	4F\	nos	.	4d# 4B#\	nos	.	4b#\	nos	.	4dd#\	nos	.
.	.	.	4F\	con-	.	4d# 4B#\	con-	.	4b#\	con-	.	4dd#\	con-	.
=42	=42	=42	=42	=42	=42	=42	=42	=42	=42	=42	=42	=42	=42	=42
2E 2EE/	2een 2cc#X\	.	2E\	-ver-	.	(2en 2c#X\	-ver-	.	(2cc#X\	-ver-	.	(2eenX\	-ver-	.
2AA/	8dd#XL 8bn\	.	2AA/	-te	.	8d#XL 8Bn\	.	.	8bn\L	.	.	8dd#X\L	.	.
.	8cc# 8a\	.	.	.	.	8c#J 8A\)	.	.	8a\J)	.	.	8cc#\J)	.	.
.	8b 8g#\	.	.	.	.	8BL 8G#\	-te	.	8g#/L	-te	.	8b/L	-te	.
.	8aJ 8f#\	.	.	.	.	8AJ 8F#\	.	.	8f#/J	.	.	8a/J	.	.
=43	=43	=43	=43	=43	=43	=43	=43	=43	=43	=43	=43	=43	=43	=43
[1BB	4g# 4e/	.	2BB/	ad	.	(4G# 4E/	ad	.	(4e/	ad	.	(4g#\	ad	.
.	8cc#L 8a\	.	.	.	.	8c#L 8A/	.	.	8a/L	.	.	8cc#\L	.	.
.	8bJ 8g#\	.	.	.	.	8BJ 8G#/)	.	.	8g#/J)	.	.	8b\J)	.	.
.	8bL 8g#\	.	4BB/	nos	.	8BL 8G#/	nos	.	8g#/L	nos	.	8b\L	nos	.
.	8a 8f#\	.	.	.	.	8AJ 8F#/	.	.	8f#/J	.	.	8a\J	.	.
.	8g# 8e\	.	4BB/	con-	.	8G#L 8E/	con-	.	8e/L	con-	.	8g#/L	con-	.
.	8f#J 8d#X\	.	.	.	.	8F#J 8D#X/	.	.	8d#X/J	.	.	8f#/J	.	.
=44	=44	=44	=44	=44	=44	=44	=44	=44	=44	=44	=44	=44	=44	=44
*	*	*	*	*	*	*^	*	*	*	*	*	*	*	*
2BB/]	2a 2f#/	.	2BB/	-ver-	.	2A 2F#/	2.ryy	-ver-	.	2f#/	-ver-	.	2a/	-ver-	.
4E\	4g# 4e/	.	4E\	-te	.	4G# 4E/	.	-te	.	4e/	-te	.	4g#/	-te	.
!	!	!LO:DY:rj:t=p.	!	!	!LO:DY:rj:b	!	!	!	!LO:DY:rj:b	!	!	!LO:DY:rj:b	!	!	!LO:DY:rj:b
4E\	4e/	p	4E\	Et	p	4E/	4E\	Et	p	4e/	Et	p	4e/	Et	p
*	*	*	*	*	*	*v	*v	*	*	*	*	*	*	*	*
=45	=45	=45	=45	=45	=45	=45	=45	=45	=45	=45	=45	=45	=45	=45
1E	1b 1g#	.	4.E\	Je-	.	4.B 4.G#/	Je-	.	4.g#/	Je-	.	4.b\	Je-	.
.	.	.	8E\	-sum	.	8B 8G#/	-sum	.	8g#/	-sum	.	8b\	-sum	.
.	.	.	4E\	be-	.	4B 4G#/	be-	.	4g#/	be-	.	4b\	be-	.
.	.	.	4E\	-ne-	.	4B 4G#/	-ne-	.	4g#/	-ne-	.	4b\	-ne-	.
=46	=46	=46	=46	=46	=46	=46	=46	=46	=46	=46	=46	=46	=46	=46
2D#X\	2cc# 2a 2f#/	.	2D#X\	-di-	.	2c# 2F#/	-di-	.	2a/	-di-	.	2cc#\	-di-	.
4D#\	4b 4a 4f#/	.	4D#\	-ctum	.	4B 4F#/	-ctum	.	4a/	-ctum	.	4b\	-ctum	.
4r	4r	.	4r	.	.	4r	.	.	4r	.	.	4r	.	.
=47	=47	=47	=47	=47	=47	=47	=47	=47	=47	=47	=47	=47	=47	=47
1D#X	1a 1f# 1B	.	4.D#X\	fru-	.	4.B 4.F#/	fru-	.	4.f#/	fru-	.	4.a/	fru-	.
.	.	.	8D#\	-ctum	.	8B 8F#/	-ctum	.	8f#/	-ctum	.	8a/	-ctum	.
.	.	.	4D#\	ven-	.	4B 4F#/	ven-	.	4f#/	ven-	.	4a/	ven-	.
.	.	.	4D#\	-tris	.	4B 4F#/	-tris	.	4f#/	-tris	.	4a/	-tris	.
=48	=48	=48	=48	=48	=48	=48	=48	=48	=48	=48	=48	=48	=48	=48
1E	1g# 1e 1B	.	2E\	tu-	.	2B 2G#/	tu-	.	2e/	tu-	.	2g#/	tu-	.
.	.	.	4E\	-i	.	4B 4G#/	-i	.	4e/	-i	.	4g#/	-i	.
.	.	.	4r	.	.	4r	.	.	4r	.	.	4r	.	.
=49	=49	=49	=49	=49	=49	=49	=49	=49	=49	=49	=49	=49	=49	=49
!	!	!LO:DY:rj	!	!	!LO:DY:rj:b	!	!	!LO:DY:rj:b	!	!	!LO:DY:rj:b	!	!	!LO:DY:rj:b
1AA	2a 2f#/	f	4.AA/	no-	f	4.A 4.F#/	no-	f	4.f#/	no-	f	4.a/	no-	f
.	.	.	8AA/	-bis	.	8A 8F#/	-bis	.	8f#/	-bis	.	8a/	-bis	.
.	4cc# 4a\	.	4AA/	post	.	4c# 4A\	post	.	4a/	post	.	4cc#\	post	.
.	4a 4f#\	.	8AA/	hoc	.	8A 8F#\	hoc	.	8f#/	hoc	.	8a\	hoc	.
.	.	.	8AA/	o-	.	8A 8F#\	o-	.	8f#/	o-	.	8a\	o-	.
=50	=50	=50	=50	=50	=50	=50	=50	=50	=50	=50	=50	=50	=50	=50
1BB	2g# 2e/	.	4.BB/	-xi-	.	4.G# 4.E/	-xi-	.	4.e/	-xi-	.	4.g#\	-xi-	.
.	.	.	8BB/	-li-	.	8G# 8E/	-li-	.	8e/	-li-	.	8g#\	-li-	.
.	4b 4g#\	.	4BB/	-um	.	4B 4G#\	-um	.	4g#/	-um	.	4b\	-um	.
.	4ee 4g#\	.	4BB/	o-	.	4e 4G#\	o-	.	4g#/	o-	.	4ee\	o-	.
=51	=51	=51	=51	=51	=51	=51	=51	=51	=51	=51	=51	=51	=51	=51
1BB	2dd#X 2a 2f#\	.	1BB	-sten-	.	1d#X 1F#	-sten-	.	1a	-sten-	.	(8ff#\L	-sten-	.
.	.	.	.	.	.	.	.	.	.	.	.	8gg#\	.	.
.	.	.	.	.	.	.	.	.	.	.	.	8aa\	.	.
.	.	.	.	.	.	.	.	.	.	.	.	8ff#\J	.	.
.	2a 2f#/	.	.	.	.	.	.	.	.	.	.	8dd#X\L	.	.
.	.	.	.	.	.	.	.	.	.	.	.	8b\	.	.
.	.	.	.	.	.	.	.	.	.	.	.	8a\	.	.
.	.	.	.	.	.	.	.	.	.	.	.	8f#\J)	.	.
=52	=52	=52	=52	=52	=52	=52	=52	=52	=52	=52	=52	=52	=52	=52
2E;\	2g# 2e;/	.	2E;\	-de	.	2e 2G#;\	-de	.	2g#;/	-de	.	2e;/	-de	.
4r	4r	.	4r	.	.	4r	.	.	4r	.	.	4r	.	.
4A\	4ee 4cc#\	.	4A\	o	.	4e 4c#\	o	.	4cc#\	o	.	4ee\	o	.
!!LO:PB:g=original
=53	=53	=53	=53	=53	=53	=53	=53	=53	=53	=53	=53	=53	=53	=53
2.A\	2ee 2cc#\	.	2A\	cle-	.	2e 2c#\	cle-	.	2cc#\	cle-	.	2ee\	cle-	.
.	4cc# 4a\	.	4A\	-mens	.	4c# 4A\	-mens	.	4a\	-mens	.	4cc#\	-mens	.
4D\	8eeL 8cc#\	.	4D\	o	.	8eL 8c#\	o	.	8cc#\L	o	.	8ee\L	o	.
.	8ddJ 8b\	.	.	.	.	8dJ 8B\	.	.	8b\J	.	.	8dd\J	.	.
=54	=54	=54	=54	=54	=54	=54	=54	=54	=54	=54	=54	=54	=54	=54
1E	4.cc# 4.a\	.	2E\	pi-	.	(4.c# 4.A\	pi-	.	(4.a\	pi-	.	(4.cc#\	pi-	.
.	8dd 8b\	.	.	.	.	8d 8B\)	.	.	8b\)	.	.	8dd\)	.	.
.	4b 4g#\	.	4E\	-a	.	4B 4G#\	-a	.	4g#/	-a	.	4b\	-a	.
.	4b 4g#\	.	4E\	o	.	4B 4G#\	o	.	4g#/	o	.	4b\	o	.
=55	=55	=55	=55	=55	=55	=55	=55	=55	=55	=55	=55	=55	=55	=55
*	*	*	*	*	*	*^	*	*	*	*	*	*	*	*
2A\	8cc#L 8a\	.	4A\	dul-	.	8c#L 8A\	2.ryy	dul-	.	8a\L	dul-	.	8cc#\L	dul-	.
.	8ddJ 8b\	.	.	.	.	8dJ 8B\	.	.	.	8b\J	.	.	8dd\J	.	.
.	8dd#XL 8b#X\	.	4A\	-cis	.	8d#XL 8B#X\	.	-cis	.	8b#X\L	-cis	.	8dd#X\L	-cis	.
.	8eeJ 8cc#\	.	.	.	.	8eJ 8c#\	.	.	.	8cc#\J	.	.	8ee\J	.	.
2D\	8ee#XL 8cc#\	.	4D\	Vir-	.	8e#XL 8c#\	.	Vir-	.	8cc#\L	Vir-	.	8ee#X\L	Vir-	.
.	8ff#J 8ddn\	.	.	.	.	8f#J 8d#\	.	.	.	8dd\J	.	.	8ff#\J	.	.
.	8eenL 8cc#\	.	8D\	-go	.	8en/	8c#\L	-go	.	8cc#\	-go	.	8een\	-go	.
.	8ddJ 8bn\	.	8D\	Ma-	.	8dn/	8Bn\J	Ma-	.	8bn\	Ma-	.	8ddn\	Ma-	.
*	*	*	*	*	*	*v	*v	*	*	*	*	*	*	*	*
=56	=56	=56	=56	=56	=56	=56	=56	=56	=56	=56	=56	=56	=56	=56
1E	4.cc# 4.a\	.	2E\	-ri-	.	(4.c# 4.A\	-ri-	.	(4.a/	-ri-	.	(4.cc#\	-ri-	.
.	8dd 8b\	.	.	.	.	8d 8B\)	.	.	8b/)	.	.	8dd\)	.	.
.	4b 4g#/	.	8E\	-a	.	8B 8G#/	-a	.	8g#/	-a	.	8b\	-a	.
.	.	.	8r	.	.	8r	.	.	8r	.	.	8r	.	.
.	4ee 4cc#\	.	4E\	o	.	4e 4c#\	o	.	4cc#\	o	.	4ee\	o	.
=57	=57	=57	=57	=57	=57	=57	=57	=57	=57	=57	=57	=57	=57	=57
2.A\	2ee 2cc#\	.	2A\	cle-	.	2e 2c#\	cle-	.	2cc#\	cle-	.	2ee\	cle-	.
.	4cc# 4a\	.	4A\	-mens	.	4c# 4A\	-mens	.	4a\	-mens	.	4cc#\	-mens	.
4D\	8eeL 8cc#\	.	4D\	o	.	8eL 8c#\	o	.	8cc#\L	o	.	8ee\L	o	.
.	8ddJ 8b\	.	.	.	.	8dJ 8B\	.	.	8b\J	.	.	8dd\J	.	.
=58	=58	=58	=58	=58	=58	=58	=58	=58	=58	=58	=58	=58	=58	=58
1E	4.cc# 4.a\	.	2E\	pi-	.	(4.c# 4.A\	pi-	.	(4.a/	pi-	.	(4.cc#\	pi-	.
.	8dd 8b\	.	.	.	.	8d 8B\)	.	.	8b/)	.	.	8dd\)	.	.
.	4b 4g#\	.	4E\	-a	.	4B 4G#\	-a	.	4g#/	-a	.	4b\	-a	.
.	4b 4g#\	.	4E\	o	.	4B 4G#\	o	.	4g#/	o	.	4b\	o	.
=59	=59	=59	=59	=59	=59	=59	=59	=59	=59	=59	=59	=59	=59	=59
2A\	8cc#L 8a\	.	4A\	dul-	.	8c#L 8A\	dul-	.	8a/L	dul-	.	8cc#\L	dul-	.
.	8ddJ 8b\	.	.	.	.	8dJ 8B\	.	.	8b/J	.	.	8dd\J	.	.
.	8dd#XL 8b#X\	.	4A\	-cis	.	8d#XL 8B#X\	-cis	.	8b#X/L	-cis	.	8dd#X\L	-cis	.
.	8eeJ 8cc#\	.	.	.	.	8eJ 8c#\	.	.	8cc#/J	.	.	8ee\J	.	.
2E\	8bnL 8g#\	.	4E\	Vir-	.	8B#L 8G#\	Vir-	.	8g#/L	Vir-	.	8b\L	Vir-	.
.	8cc#J 8a\	.	.	.	.	8c#J 8A\	.	.	8a/J	.	.	8cc#\J	.	.
.	8ddnL 8b\	.	8E\	-go	.	8dn 8Bn\	-go	.	8bn\	-go	.	8ddn\	-go	.
.	8eeJ 8cc#\	.	8E\	Ma-	.	8e 8c#\	Ma-	.	8cc#\	Ma-	.	8ee\	Ma-	.
=60	=60	=60	=60	=60	=60	=60	=60	=60	=60	=60	=60	=60	=60	=60
2E\	(4.ee 4.cc#\	.	2E\	-ri-	.	(4.e 4.c#\	-ri-	.	(4.cc#\	-ri-	.	(4.ee\	-ri-	.
.	8dd 8b\)	.	.	.	.	8d 8B\)	.	.	8b\)	.	.	8dd\)	.	.
2A\	8cc# 8a\	.	8A\	-a	.	8c# 8A\	-a	.	8a/	-a	.	8cc#\	-a	.
.	8r	.	8r	.	.	8r	.	.	8r	.	.	8r	.	.
.	4ee 4cc#\	.	4A\	o	.	4e 4c#\	o	.	4cc#\	o	.	4ee\	o	.
*	*	*	*	*Xij	*	*	*	*	*	*	*	*	*	*
=61!|:	=61!|:	=61!|:	=61!|:	=61!|:	=61!|:	=61!|:	=61!|:	=61!|:	=61!|:	=61!|:	=61!|:	=61!|:	=61!|:	=61!|:
*>B	*>B	*>B	*>B	*>B	*>B	*>B	*>B	*>B	*>B	*>B	*>B	*>B	*>B	*>B
*tremolo	*	*	*	*	*	*	*	*	*	*	*	*	*	*
!LO:TX:t=P:problem:mixed beam	!	!LO:DY:rj	!	!	!LO:DY:rj:b	!	!	!LO:DY:rj:b	!	!	!LO:DY:rj:b	!LO:TX:a:Bi:t=Allo vivace	!	!LO:DY:rj:b
8AA/L	4ee 4cc#\	f	[1A	cle-	ff	(4e 4c#\	cle-	ff	(4cc#\	cle-	ff	(4ee\	cle-	ff
8A\	.	.	.	.	.	.	.	.	.	.	.	.	.	.
8AA/	4ff# 4dd\	.	.	.	.	4f# 4d\)	.	.	4dd\)	.	.	4ff#\)	.	.
8A\J	.	.	.	.	.	.	.	.	.	.	.	.	.	.
*rep	*	*	*	*	*	*	*	*	*	*	*	*	*	*
!LO:TX:t=P:problem:mixed beam	!	!	!	!	!	!	!	!	!	!	!	!	!	!
8AA/L	4ee 4cc#\	.	.	.	.	4e 4c#\	-mens	.	4cc#\	-mens	.	4ee\	-mens	.
8A\	.	.	.	.	.	.	.	.	.	.	.	.	.	.
8AA/	4dd#X 4b#X\	.	.	.	.	4d#X 4B#X\	o	.	4b#X\	o	.	4dd#X\	o	.
8A\J	.	.	.	.	.	.	.	.	.	.	.	.	.	.
*Xrep	*	*	*	*	*	*	*	*	*	*	*	*	*	*
=62	=62	=62	=62	=62	=62	=62	=62	=62	=62	=62	=62	=62	=62	=62
*rep	*	*	*	*	*	*	*	*	*	*	*	*	*	*
!LO:TX:t=P:problem:mixed beam	!	!	!	!	!	!	!	!	!	!	!	!	!	!
8AA/L	2ee 2cc#\	.	1A_	.	.	2e 2c#\	pi-	.	2cc#\	pi-	.	2ee\	pi-	.
8A\	.	.	.	.	.	.	.	.	.	.	.	.	.	.
8AA/	.	.	.	.	.	.	.	.	.	.	.	.	.	.
8A\J	.	.	.	.	.	.	.	.	.	.	.	.	.	.
!LO:TX:t=P:problem:mixed beam	!	!	!	!	!	!	!	!	!	!	!	!	!	!
8AA/L	4cc# 4a\	.	.	.	.	8c# 8A\	-a	.	8a/	-a	.	8cc#\	-a	.
8A\	.	.	.	.	.	8r	.	.	8r	.	.	8r	.	.
8AA/	4ee 4cc#\	.	.	.	.	4e 4c#\	o	.	4cc#\	o	.	4ee\	o	.
8A\J	.	.	.	.	.	.	.	.	.	.	.	.	.	.
*Xrep	*	*	*	*	*	*	*	*	*	*	*	*	*	*
=63	=63	=63	=63	=63	=63	=63	=63	=63	=63	=63	=63	=63	=63	=63
*rep	*	*	*	*	*	*	*	*	*	*	*	*	*	*
!LO:TX:t=P:problem:mixed beam	!	!	!	!	!	!	!	!	!	!	!	!	!	!
8AA/L	4ee 4cc#\	.	1A_	.	.	(4e 4c#\	cle-	.	(4cc#\	cle-	.	(4ee\	cle-	.
8A\	.	.	.	.	.	.	.	.	.	.	.	.	.	.
8AA/	4ff# 4dd\	.	.	.	.	4f# 4d\)	.	.	4dd\)	.	.	4ff#\)	.	.
8A\J	.	.	.	.	.	.	.	.	.	.	.	.	.	.
!LO:TX:t=P:problem:mixed beam	!	!	!	!	!	!	!	!	!	!	!	!	!	!
8AA/L	4ee 4cc#\	.	.	.	.	4e 4c#\	-mens	.	4cc#\	-mens	.	4ee\	-mens	.
8A\	.	.	.	.	.	.	.	.	.	.	.	.	.	.
8AA/	4dd#X 4b#X\	.	.	.	.	4d#X 4B#X\	o	.	4b#X\	o	.	4dd#X\	o	.
8A\J	.	.	.	.	.	.	.	.	.	.	.	.	.	.
*Xrep	*	*	*	*	*	*	*	*	*	*	*	*	*	*
=64	=64	=64	=64	=64	=64	=64	=64	=64	=64	=64	=64	=64	=64	=64
*rep	*	*	*	*	*	*	*	*	*	*	*	*	*	*
!LO:TX:t=P:problem:mixed beam	!	!	!	!	!	!	!	!	!	!	!	!	!	!
8AA/L	2ee 2cc#\	.	2A\]	.	.	2e 2c#\	pi-	.	2cc#\	pi-	.	2ee\	pi-	.
8A\	.	.	.	.	.	.	.	.	.	.	.	.	.	.
8AA/	.	.	.	.	.	.	.	.	.	.	.	.	.	.
8A\J	.	.	.	.	.	.	.	.	.	.	.	.	.	.
!LO:TX:t=P:problem:mixed beam	!	!	!	!	!	!	!	!	!	!	!	!	!	!
8AA/L	4cc# 4a\	.	8A\	-mens	.	8c# 8A\	-a	.	8a\	-a	.	8cc#\	-a	.
8A\	.	.	8r	.	.	8r	.	.	8r	.	.	8r	.	.
8AA/	4cc# 4a\	.	4A\	o	.	4c# 4A\	o	.	4a\	o	.	4cc#\	o	.
8A\J	.	.	.	.	.	.	.	.	.	.	.	.	.	.
*Xtremolo	*	*	*	*	*	*	*	*	*	*	*	*	*	*
*Xrep	*	*	*	*	*	*	*	*	*	*	*	*	*	*
!!LO:LB:g=original
=65	=65	=65	=65	=65	=65	=65	=65	=65	=65	=65	=65	=65	=65	=65
*	*	*	*	*ij	*	*	*	*	*	*	*	*	*	*
(8DD/L	1ff# 1dd	.	2.D\	dul-	.	2.f# 2.d\	dul-	.	2.dd\	dul-	.	2.ff#\	dul-	.
8FF#/	.	.	.	.	.	.	.	.	.	.	.	.	.	.
8AA/	.	.	.	.	.	.	.	.	.	.	.	.	.	.
8D/J)	.	.	.	.	.	.	.	.	.	.	.	.	.	.
*rep	*	*	*	*	*	*	*	*	*	*	*	*	*	*
(8DD/L	.	.	.	.	.	.	.	.	.	.	.	.	.	.
8FF#/	.	.	.	.	.	.	.	.	.	.	.	.	.	.
8AA/	.	.	4D\	-cis	.	4f# 4d\	-cis	.	4dd\	-cis	.	4ff#\	-cis	.
8D/J)	.	.	.	.	.	.	.	.	.	.	.	.	.	.
*Xrep	*	*	*	*	*	*	*	*	*	*	*	*	*	*
=66	=66	=66	=66	=66	=66	=66	=66	=66	=66	=66	=66	=66	=66	=66
(8EE/L	2ee 2cc#\	.	2E\	Vir-	.	2e 2c#\	Vir-	.	2cc#\	Vir-	.	2ee\	Vir-	.
8AA/	.	.	.	.	.	.	.	.	.	.	.	.	.	.
8C#/	.	.	.	.	.	.	.	.	.	.	.	.	.	.
8E/J)	.	.	.	.	.	.	.	.	.	.	.	.	.	.
*rep	*	*	*	*	*	*	*	*	*	*	*	*	*	*
(8EE/L	2cc# 2a\	.	4E\	-go	.	4c# 4A\	-go	.	4a\	-go	.	4cc#\	-go	.
8AA/	.	.	.	.	.	.	.	.	.	.	.	.	.	.
8C#/	.	.	4E\	Ma-	.	4c# 4A\	Ma-	.	4a\	Ma-	.	4cc#\	Ma-	.
8E/J)	.	.	.	.	.	.	.	.	.	.	.	.	.	.
*Xrep	*	*	*	*	*	*	*	*	*	*	*	*	*	*
=67	=67	=67	=67	=67	=67	=67	=67	=67	=67	=67	=67	=67	=67	=67
(8EE/L	4ee 4cc#\	.	1E	-ri-	.	(4e 4c#\	-ri-	.	(4cc#\	-ri-	.	(4ee\	-ri-	.
8GG#/	.	.	.	.	.	.	.	.	.	.	.	.	.	.
8BB/	4dd 4b\	.	.	.	.	4d 4B\	.	.	4b\	.	.	4dd\	.	.
8E/J)	.	.	.	.	.	.	.	.	.	.	.	.	.	.
*rep	*	*	*	*	*	*	*	*	*	*	*	*	*	*
(8EE/L	4cc# 4a\	.	.	.	.	4c# 4A\	.	.	4a\	.	.	4cc#\	.	.
8GG#/	.	.	.	.	.	.	.	.	.	.	.	.	.	.
8BB/	4b 4g#\	.	.	.	.	4B 4G#\)	.	.	4g#\)	.	.	4b\)	.	.
8E/J)	.	.	.	.	.	.	.	.	.	.	.	.	.	.
*Xrep	*	*	*	*	*	*	*	*	*	*	*	*	*	*
=68	=68	=68	=68	=68	=68	=68	=68	=68	=68	=68	=68	=68	=68	=68
*	*	*	*	*	*	*^	*	*	*	*	*	*	*	*
*tremolo	*	*	*	*	*	*	*	*	*	*	*	*	*	*	*
!LO:TX:t=P:problem:mixed beam	!	!	!	!	!	!	!	!	!	!	!	!	!	!	!
8AA/L	2cc# 2a\	.	2A\	-a	.	2c#/	2A\	-a	.	2a/	-a	.	2cc#\	-a	.
8A\	.	.	.	.	.	.	.	.	.	.	.	.	.	.	.
8AA/	.	.	.	.	.	.	.	.	.	.	.	.	.	.	.
8A\J	.	.	.	.	.	.	.	.	.	.	.	.	.	.	.
!LO:TX:t=P:problem:mixed beam	!	!	!	!	!	!	!	!	!	!	!	!	!	!	!
8AA/L	4r	.	4r	.	.	4r	4ryy	.	.	4r	.	.	4r	.	.
8A\	.	.	.	.	.	.	.	.	.	.	.	.	.	.	.
!	!	!	!	!	!	!LO:TX:t=P:problem:problem:skreślona nuta	!	!	!	!	!	!	!	!	!
8AA/	4ee 4cc#\	.	4A\	o	.	4e 4c#\	4ryy	o	.	4cc#\	o	.	4ee\	o	.
8A\J	.	.	.	.	.	.	.	.	.	.	.	.	.	.	.
*Xtremolo	*	*	*	*	*	*	*	*	*	*	*	*	*	*	*
*	*	*	*	*	*	*v	*v	*	*	*	*	*	*	*	*
=69:|!	=69:|!	=69:|!	=69:|!	=69:|!	=69:|!	=69:|!	=69:|!	=69:|!	=69:|!	=69:|!	=69:|!	=69:|!	=69:|!	=69:|!
*>C	*>C	*>C	*>C	*>C	*>C	*>C	*>C	*>C	*>C	*>C	*>C	*>C	*>C	*>C
(8EE/L	2.ee 2.cc#\	.	1E	cle-	.	(2.e 2.c#\	cle-	.	(2.cc#\	cle-	.	(2.ee\	cle-	.
8GG#/	.	.	.	.	.	.	.	.	.	.	.	.	.	.
8BB/	.	.	.	.	.	.	.	.	.	.	.	.	.	.
8E/J)	.	.	.	.	.	.	.	.	.	.	.	.	.	.
*rep	*	*	*	*	*	*	*	*	*	*	*	*	*	*
(8EE/L	.	.	.	.	.	.	.	.	.	.	.	.	.	.
8GG#/	.	.	.	.	.	.	.	.	.	.	.	.	.	.
8BB/	4dd 4b\	.	.	.	.	4d 4B\)	.	.	4b\)	.	.	4dd\)	.	.
8E/J)	.	.	.	.	.	.	.	.	.	.	.	.	.	.
*Xrep	*	*	*	*	*	*	*	*	*	*	*	*	*	*
=70	=70	=70	=70	=70	=70	=70	=70	=70	=70	=70	=70	=70	=70	=70
(8AA\L	2cc# 2a\	.	2A\	-mens	.	2c# 2A\	-mens	.	2a/	-mens	.	2cc#\	-mens	.
8C#\	.	.	.	.	.	.	.	.	.	.	.	.	.	.
8E\	.	.	.	.	.	.	.	.	.	.	.	.	.	.
8A\J)	.	.	.	.	.	.	.	.	.	.	.	.	.	.
*rep	*	*	*	*	*	*	*	*	*	*	*	*	*	*
(8AA\L	4r	.	4r	.	.	4r	.	.	4r	.	.	4r	.	.
8C#\	.	.	.	.	.	.	.	.	.	.	.	.	.	.
8E\	4cc# 4a\	.	4A\	o	.	4c# 4A\	o	.	4a/	o	.	4cc#\	o	.
8A\J)	.	.	.	.	.	.	.	.	.	.	.	.	.	.
*Xrep	*	*	*	*	*	*	*	*	*	*	*	*	*	*
=71	=71	=71	=71	=71	=71	=71	=71	=71	=71	=71	=71	=71	=71	=71
(8EE/L	2.ee 2.cc#\	.	1E	pi-	.	(2.e 2.c#\	pi-	.	(2.cc#\	pi-	.	(2.ee\	pi-	.
8GG#/	.	.	.	.	.	.	.	.	.	.	.	.	.	.
8BB/	.	.	.	.	.	.	.	.	.	.	.	.	.	.
8E/J)	.	.	.	.	.	.	.	.	.	.	.	.	.	.
*rep	*	*	*	*	*	*	*	*	*	*	*	*	*	*
(8EE/L	.	.	.	.	.	.	.	.	.	.	.	.	.	.
8GG#/	.	.	.	.	.	.	.	.	.	.	.	.	.	.
8BB/	4dd 4b\	.	.	.	.	4d 4B\)	.	.	4b\)	.	.	4dd\)	.	.
8E/J)	.	.	.	.	.	.	.	.	.	.	.	.	.	.
*Xrep	*	*	*	*	*	*	*	*	*	*	*	*	*	*
=72	=72	=72	=72	=72	=72	=72	=72	=72	=72	=72	=72	=72	=72	=72
(8AA\L	2cc# 2a\	.	2A\	-a	.	2c# 2A\	-a	.	2a/	-a	.	2cc#\	-a	.
8C#\	.	.	.	.	.	.	.	.	.	.	.	.	.	.
8E\	.	.	.	.	.	.	.	.	.	.	.	.	.	.
8A\J)	.	.	.	.	.	.	.	.	.	.	.	.	.	.
*rep	*	*	*	*	*	*	*	*	*	*	*	*	*	*
(8AA\L	4r	.	4r	.	.	4r	.	.	4r	.	.	4r	.	.
8C#\	.	.	.	.	.	.	.	.	.	.	.	.	.	.
8E\	4cc# 4a\	.	4A\	o	.	4c# 4A\	o	.	4a/	o	.	4cc#\	o	.
8A\J)	.	.	.	.	.	.	.	.	.	.	.	.	.	.
*Xrep	*	*	*	*	*	*	*	*	*	*	*	*	*	*
=73	=73	=73	=73	=73	=73	=73	=73	=73	=73	=73	=73	=73	=73	=73
(8EE/L	[1ee [1b [1g# [1e	.	2E\	dul-	.	2d 2B\	dul-	.	2g#/	dul-	.	2ee\	dul-	.
8GG#/	.	.	.	.	.	.	.	.	.	.	.	.	.	.
8BB/	.	.	.	.	.	.	.	.	.	.	.	.	.	.
8E/J)	.	.	.	.	.	.	.	.	.	.	.	.	.	.
*rep	*	*	*	*	*	*	*	*	*	*	*	*	*	*
(8EE/L	.	.	2E\	-cis	.	2d 2B\	-cis	.	2g#/	-cis	.	2ee\	-cis	.
8GG#/	.	.	.	.	.	.	.	.	.	.	.	.	.	.
8BB/	.	.	.	.	.	.	.	.	.	.	.	.	.	.
8E/J)	.	.	.	.	.	.	.	.	.	.	.	.	.	.
*Xrep	*	*	*	*	*	*	*	*	*	*	*	*	*	*
=74	=74	=74	=74	=74	=74	=74	=74	=74	=74	=74	=74	=74	=74	=74
*rep	*	*	*	*	*	*	*	*	*	*	*	*	*	*
(8EE/L	1ee_ 1b_ 1g#_ 1e_	.	2E\	Vir-	.	2d 2B\	Vir-	.	2g#/	Vir-	.	2ee\	Vir-	.
8GG#/	.	.	.	.	.	.	.	.	.	.	.	.	.	.
8BB/	.	.	.	.	.	.	.	.	.	.	.	.	.	.
8E/J)	.	.	.	.	.	.	.	.	.	.	.	.	.	.
(8EE/L	.	.	4E\	-go	.	4d 4B\	-go	.	4g#/	-go	.	4ee\	-go	.
8GG#/	.	.	.	.	.	.	.	.	.	.	.	.	.	.
8BB/	.	.	4E\	Ma-	.	4d 4B\	Ma-	.	4g#/	Ma-	.	4ee\	Ma-	.
8E/J)	.	.	.	.	.	.	.	.	.	.	.	.	.	.
*Xrep	*	*	*	*	*	*	*	*	*	*	*	*	*	*
=75	=75	=75	=75	=75	=75	=75	=75	=75	=75	=75	=75	=75	=75	=75
1E 1BB 1GG# 1EE;	1ee] 1b] 1g#] 1e;]	.	1E;	-ri-	.	1d 1B;	-ri-	.	1g#;	-ri-	.	1ee;	-ri-	.
=76	=76	=76	=76	=76	=76	=76	=76	=76	=76	=76	=76	=76	=76	=76
2AA/	2a/	.	2A\	-a	.	2c# 2A\	-a	.	2g#/	-a	.	2a/	-a	.
*	*	*	*	*Xij	*	*	*	*	*	*Xij	*	*	*	*
!	!LO:TX:b:t=Fine	!	!	!	!	!	!	!	!	!	!	!	!	!
2r	2r	.	2r	.	.	2r	.	.	2r	.	.	2r	.	.
==	==	==	==	==	==	==	==	==	==	==	==	==	==	==
*-	*-	*-	*-	*-	*-	*-	*-	*-	*-	*-	*-	*-	*-	*-
!!!system-decoration: (s1,s2,s3,s4,p5)
!!!RDF**kern: > = above
!!!RDF**kern: < = below
!!!RDF**kern: | = vertical stroke
!!!ENC: Andrzej Kubiczek
!!!END: 2021-06-09
!!!ENC: Anastazja Marusiak
!!!END: 2021-05-27
